src/assets/icons/weeks,fancy,48.svg

<svg width="48" height="48" viewBox="0 0 48 48" fill="none" xmlns="http://www.w3.org/2000/svg">
<rect opacity="0.2" x="4" y="6" width="40" height="40" rx="4" fill="black"/>
<path d="M6.59819 37.4205H16.3723V41H20.4888V37.4205H23.0144V33.9702H20.4888V20.6364H15.0996L6.59819 34.0298V37.4205ZM16.4519 33.9702H10.9334V33.8111L16.2928 25.3295H16.4519V33.9702ZM33.4796 41.2784C38.0733 41.2784 41.3745 38.8224 41.3844 35.5213C41.3745 32.9759 39.4157 30.8977 36.9696 30.4901V30.3509C39.0975 29.9134 40.6188 28.0739 40.6287 25.8366C40.6188 22.6847 37.5961 20.358 33.4796 20.358C29.3532 20.358 26.3304 22.6847 26.3404 25.8366C26.3304 28.0639 27.8319 29.9134 29.9995 30.3509V30.4901C27.5137 30.8977 25.5748 32.9759 25.5847 35.5213C25.5748 38.8224 28.8858 41.2784 33.4796 41.2784ZM33.4796 38.1165C31.4313 38.1165 30.0591 36.9034 30.0591 35.1832C30.0591 33.4233 31.5009 32.1506 33.4796 32.1506C35.4483 32.1506 36.9 33.4233 36.9 35.1832C36.9 36.9134 35.5179 38.1165 33.4796 38.1165ZM33.4796 29.0185C31.7594 29.0185 30.5364 27.8949 30.5364 26.2841C30.5364 24.6932 31.7395 23.5994 33.4796 23.5994C35.2097 23.5994 36.4228 24.7031 36.4228 26.2841C36.4228 27.8949 35.1898 29.0185 33.4796 29.0185Z" fill="black"/>
<g opacity="0.4">
<path d="M10 4C10 2.89543 10.8954 2 12 2C13.1046 2 14 2.89543 14 4V8C14 9.10457 13.1046 10 12 10C10.8954 10 10 9.10457 10 8V4Z" fill="black"/>
<path d="M34 4C34 2.89543 34.8954 2 36 2C37.1046 2 38 2.89543 38 4V8C38 9.10457 37.1046 10 36 10C34.8954 10 34 9.10457 34 8V4Z" fill="black"/>
</g>
<path fill-rule="evenodd" clip-rule="evenodd" d="M10 6.00869C7.52043 6.04456 6.11466 6.22849 5.17157 7.17157C4 8.34315 4 10.2288 4 14V16H44V14C44 10.2288 44 8.34315 42.8284 7.17157C41.8853 6.22849 40.4796 6.04456 38 6.00869V8C38 9.10457 37.1046 10 36 10C34.8954 10 34 9.10457 34 8V6H14V8C14 9.10457 13.1046 10 12 10C10.8954 10 10 9.10457 10 8V6.00869Z" fill="black"/>
</svg>

<svg xmlns="http://www.w3.org/2000/svg" width="48" height="48" fill="none" viewBox="0 0 48 48">
  <rect width="40" height="40" x="4" y="6" fill="#000" opacity=".2" rx="4"/>
  <path fill="#000" d="M6.598 37.42h9.774V41h4.117v-3.58h2.525v-3.45H20.49V20.636h-5.39L6.6 34.03v3.39zm9.854-3.45h-5.519v-.159l5.36-8.482h.159v8.641zm17.028 7.308c4.593 0 7.895-2.456 7.904-5.757-.01-2.545-1.968-4.623-4.414-5.03v-.14c2.127-.438 3.649-2.277 3.659-4.514-.01-3.152-3.033-5.479-7.15-5.479-4.126 0-7.149 2.327-7.139 5.479-.01 2.227 1.492 4.076 3.66 4.514v.14c-2.486.407-4.425 2.485-4.415 5.03-.01 3.301 3.3 5.757 7.895 5.757zm0-3.161c-2.049 0-3.42-1.214-3.42-2.934 0-1.76 1.44-3.032 3.42-3.032 1.968 0 3.42 1.272 3.42 3.032 0 1.73-1.382 2.934-3.42 2.934zm0-9.098c-1.72 0-2.944-1.124-2.944-2.735 0-1.59 1.203-2.685 2.944-2.685 1.73 0 2.943 1.104 2.943 2.685 0 1.61-1.233 2.735-2.943 2.735z"/>
  <g opacity=".4">
    <path fill="#000" d="M10 4a2 2 0 114 0v4a2 2 0 11-4 0V4zM34 4a2 2 0 114 0v4a2 2 0 11-4 0V4z"/>
  </g>
  <path fill="#000" fill-rule="evenodd" d="M10 6.009c-2.48.036-3.885.22-4.828 1.163C4 8.343 4 10.229 4 14v2h40v-2c0-3.771 0-5.657-1.172-6.828-.943-.944-2.348-1.127-4.828-1.163V8a2 2 0 11-4 0V6H14v2a2 2 0 11-4 0V6.009z" clip-rule="evenodd"/>
</svg>
